flaticon/romance-lifestyle/vibrator-1.svg

<svg xmlns="http://www.w3.org/2000/svg" width="32" height="32" viewBox="0 0 24 24">
    <path d="M23.054688.925781C21.820312-.308594 19.78125-.308594 18.550781.925781L4.226562 15.289062 3.929688 14.992188.0195312 18.902344 5.121094 24 9.03125 20.089844 8.730469 19.792969 23.054688 5.429688C24.285156 4.195312 24.285156 2.15625 23.054688.925781zM5.121094 22.808594L4.824219 22.511719 5.714844 21.621094C5.886719 21.449219 5.886719 21.195312 5.714844 21.023438 5.546875 20.855469 5.289062 20.855469 5.121094 21.023438L4.226562 21.917969 3.609375 21.300781C3.617188 21.292969 3.625 21.289062 3.632812 21.28125L4.527344 20.386719C4.695312 20.21875 4.695312 19.960938 4.527344 19.792969 4.355469 19.621094 4.101562 19.621094 3.929688 19.792969L3.039062 20.683594C3.03125 20.691406 3.023438 20.699219 3.019531 20.707031L2.402344 20.089844 3.292969 19.199219C3.464844 19.027344 3.464844 18.773438 3.292969 18.601562 3.125 18.433594 2.867188 18.433594 2.699219 18.601562L1.804688 19.496094 1.210938 18.898438 3.929688 16.179688 7.839844 20.089844zM22.460938 4.835938L8.136719 19.199219 4.824219 15.882812 19.144531 1.519531C20.078125.625 21.566406.625 22.460938 1.519531 23.351562 2.453125 23.351562 3.941406 22.460938 4.835938zM10.773438 6.957031C10.859375 7.042969 10.941406 7.085938 11.070312 7.085938 11.15625 7.085938 11.28125 7.042969 11.367188 6.957031L14.980469 3.347656C15.148438 3.175781 15.148438 2.921875 14.980469 2.75 14.808594 2.582031 14.554688 2.582031 14.386719 2.75L10.773438 6.363281C10.601562 6.535156 10.601562 6.789062 10.773438 6.957031zM10.773438 4.960938C10.859375 4.960938 10.984375 4.917969 11.070312 4.835938L12.558594 3.347656C12.726562 3.175781 12.726562 2.921875 12.558594 2.75 12.386719 2.582031 12.132812 2.582031 11.960938 2.75L10.476562 4.238281C10.304688 4.410156 10.304688 4.664062 10.476562 4.835938 10.558594 4.917969 10.644531 4.960938 10.773438 4.960938zM18.378906 12.527344C18.210938 12.355469 17.953125 12.355469 17.785156 12.527344L14.171875 16.136719C14.003906 16.308594 14.003906 16.5625 14.171875 16.734375 14.257812 16.816406 14.34375 16.859375 14.46875 16.859375 14.597656 16.859375 14.683594 16.816406 14.765625 16.734375L18.378906 13.121094C18.550781 12.949219 18.550781 12.695312 18.378906 12.527344zM18.082031 14.652344L16.59375 16.136719C16.425781 16.308594 16.425781 16.5625 16.59375 16.734375 16.679688 16.816406 16.765625 16.859375 16.890625 16.859375 16.976562 16.859375 17.105469 16.816406 17.191406 16.734375L18.675781 15.246094C18.847656 15.074219 18.847656 14.820312 18.675781 14.652344 18.507812 14.480469 18.253906 14.480469 18.082031 14.652344zM18.082031 14.652344"/>
    <path d="M20.675781 1.902344C20.25 1.902344 19.824219 2.070312 19.484375 2.410156L17.0625 4.832031C16.890625 5.003906 16.890625 5.257812 17.0625 5.429688 17.148438 5.515625 17.230469 5.554688 17.359375 5.554688 17.445312 5.554688 17.574219 5.515625 17.65625 5.429688L20.078125 3.007812C20.378906 2.667969 20.972656 2.667969 21.269531 3.007812 21.441406 3.175781 21.695312 3.175781 21.863281 3.007812 22.035156 2.835938 22.035156 2.582031 21.863281 2.410156 21.566406 2.070312 21.140625 1.902344 20.675781 1.902344zM6.710938 15.464844L13.710938 8.464844 14.3125 9.0625 7.3125 16.066406zM8.585938 17.339844L7.984375 16.738281 14.988281 9.738281 15.585938 10.339844zM8.585938 17.339844"/>
</svg>

<svg xmlns="http://www.w3.org/2000/svg" width="32" height="32" viewBox="0 0 24 24">
    <path d="M23.055.926C21.82-.31 19.78-.31 18.55.926L4.227 15.289l-.297-.297-3.91 3.91L5.12 24l3.91-3.91-.3-.297L23.054 5.43c1.23-1.235 1.23-3.274 0-4.504zM5.12 22.809l-.297-.297.89-.89a.41.41 0 0 0 0-.599.413.413 0 0 0-.593 0l-.894.895-.618-.617c.008-.008.016-.012.024-.02l.894-.894a.413.413 0 0 0 0-.594.41.41 0 0 0-.597 0l-.89.89a.104.104 0 0 0-.02.024l-.618-.617.891-.89a.41.41 0 0 0 0-.598.413.413 0 0 0-.594 0l-.894.894-.594-.598L3.93 16.18l3.91 3.91zm17.34-17.973L8.137 19.199l-3.313-3.316L19.144 1.52c.934-.895 2.422-.895 3.317 0 .89.933.89 2.421 0 3.316zm0 0M10.773 6.957a.382.382 0 0 0 .297.129c.086 0 .211-.043.297-.129l3.613-3.61a.417.417 0 0 0 0-.597.413.413 0 0 0-.593 0l-3.614 3.613a.406.406 0 0 0 0 .594zm0 0M10.773 4.96a.47.47 0 0 0 .297-.124l1.489-1.488a.417.417 0 0 0 0-.598.417.417 0 0 0-.598 0l-1.484 1.488a.41.41 0 0 0 0 .598.386.386 0 0 0 .296.125zm0 0M18.379 12.527a.406.406 0 0 0-.594 0l-3.613 3.61a.417.417 0 0 0 0 .597.398.398 0 0 0 .297.125.386.386 0 0 0 .297-.125l3.613-3.613a.406.406 0 0 0 0-.594zm0 0M18.082 14.652l-1.488 1.485a.417.417 0 0 0 0 .597.398.398 0 0 0 .297.125.479.479 0 0 0 .3-.125l1.485-1.488a.406.406 0 0 0 0-.594.406.406 0 0 0-.594 0zm0 0"/>
    <path d="M20.676 1.902c-.426 0-.852.168-1.192.508l-2.422 2.422a.41.41 0 0 0 0 .598.379.379 0 0 0 .297.125c.086 0 .215-.04.297-.125l2.422-2.422c.3-.34.895-.34 1.192 0a.413.413 0 0 0 .593 0 .41.41 0 0 0 0-.598c-.297-.34-.722-.508-1.187-.508zm0 0M6.71 15.465l7-7 .602.598-7 7.003zm0 0M8.586 17.34l-.602-.602 7.004-7 .598.602zm0 0"/>
</svg>
